X: 42773
T: White Rabbit, The
R: reel
M: 4/4
K: Fmajor
|gf|ecAc AFDC|B,F(Ac) dBGB|CEGc FABc|ABce f2:|
c|AFAC BAFB,|GDGc AFAc|AFAC BAFB,|GDAc ef2:|

